svgs/sharp-solid/calendar-days.svg

<svg xmlns="http://www.w3.org/2000/svg" viewBox="0 0 448 512"><!--! Font Awesome Pro 6.6.0 by @fontawesome - https://fontawesome.com License - https://fontawesome.com/license (Commercial License) Copyright 2024 Fonticons, Inc. --><path d="M160 0l0 64 128 0 0-64 64 0 0 64 96 0 0 96L0 160 0 64l96 0L96 0l64 0zM0 192l448 0 0 320L0 512 0 192zM64 320l64 0 0-64-64 0 0 64zm128-64l0 64 64 0 0-64-64 0zm192 64l0-64-64 0 0 64 64 0zM64 448l64 0 0-64-64 0 0 64zm192-64l-64 0 0 64 64 0 0-64zm64 64l64 0 0-64-64 0 0 64z"/></svg>

<svg xmlns="http://www.w3.org/2000/svg" viewBox="0 0 448 512"><!--! Font Awesome Pro 6.4.2 by @fontawesome - https://fontawesome.com License - https://fontawesome.com/license (Commercial License) Copyright 2023 Fonticons, Inc. --><path d="M160 0V64H288V0h64V64h96v96H0V64H96V0h64zM0 192H448V512H0V192zM64 320h64V256H64v64zm128-64v64h64V256H192zm192 64V256H320v64h64zM64 448h64V384H64v64zm192-64H192v64h64V384zm64 64h64V384H320v64z"/></svg>
